src/assets/images/currencies/fct.svg

<svg height="32" viewBox="0 0 32 32" width="32" xmlns="http://www.w3.org/2000/svg"><path d="m21.7728703 21.3424418s-.0833651.1152224-.1170317.148829c-.0003207.0335265-1.9709425 1.4574842-3.0235867 1.8982902-.8835094.3727927-1.6643354.5761123-2.2423599.610439h-.629892l.1156225-.003573c.6522539-.0413172 1.5125353-.2726409 2.5188786-.6739991 1.1889141-.5088192 3.3447025-1.9799861 3.3783692-1.9799861zm1.9214044-3.0033057c-.0681349.2031596-.1707381.5080191-.2725397.7121389-1.1889942 2.4403959-6.6919701 5.1529248-8.866195 4.8134986-.2380714-.0336065-.5435563-.1016198-.7471594-.169633.7816276.2375663 2.2423599-.0336066 4.008577-.7799921 2.8536502-1.2199979 5.469229-3.2543947 5.8773171-4.5760124zm.2901745-1.4639654-.0865714.5826736c-.4072864 1.4575642-3.2950041 3.7287271-6.45454 5.0848315-2.0724234.8816119-3.7367588 1.1183781-4.5521332.8135987-.2036031-.1016198-.4754213-.2032397-.6453578-.3047795 2.7119296 1.1212587 10.9312438-3.2835202 11.7386024-6.1763243zm-7.526262 4.7854931c.0335064.0336866.0335064.1697131-.1700968.2712529-2.3441614.9152185-4.1785134 1.1183781-4.9256728.6104391-.113291-.090151-.2565435-.1955582-.3897851-.296117l-.1873577-.144689c.7134126.610439 2.6496463.4063993 5.1638244-.5761123.3728182-.1016199.509088.1352263.509088.1352263zm-6.79457324-.8127985c.37361974.4744125 1.29055534.6104391 2.61597964.4063993.2380714 0 .4072864.2032396.4417547.2711729.0336666.0681733.0681349.2033996-.0681349.2377263-1.2225807.2032396-2.1060901.1016198-2.5141781-.3391861-.1354682-.1696331-.33995312-.4063993-.47542134-.5761124zm11.65195084-5.5253974c.0681349.2031596 0 .3391061-.0681349.4407259-1.4943989 1.3560244-3.7033326 2.7119689-6.0127853 3.6952006-3.4312739 1.4242777-6.01278532 1.5255775-6.25093686.3047794-.03366666-.1016198-.10180157-.1696331-.16993647-.2711729.64535781.8472052 3.02326603.6775722 6.08092023-.6439655 2.3096932-.9832318 4.5183864-2.3727827 6.0127853-3.6952006.2725396-.1360265.3744214.0672131.408088.1696331zm2.2086131-2.1018499c.1018015.2703727.2036031.5416256.2372698.7455854.0338269.1697931.0338269.3729527-.0335064.6105991-.4072864 1.4911708-2.9551311 3.6952005-6.046452 5.2879911-.3399531.1352264-.5435562-.1016198-.4754213-.3391861.0336667-.1016198.1018016-.1696331.1699365-.2032396 3.1250676-1.6271973 5.7410473-3.8647537 6.1481734-5.389611.0681349-.2711996.0681349-.5085792 0-.7121389zm.4076872 1.7273769.0681349.4416061-.0003206.2711729c0 .1352263 0 .2375663-.0336667.4063992-.2380714.9152185-1.3589307 2.1016098-2.8877177 3.2543946-.2380714.1696331-.3736197-.0680133-.3399531-.2375663.0336667-.1352264.1354682-.2375663.1699365-.2711729 1.5970021-1.1863913 2.7514479-2.4063892 2.98992-3.3560144.0336667-.1696331.0681349-.3391862.0336667-.5088192zm-2.2417988-4.610019c.1691349.1704332.3391516.3735929.509088.5432259.203523.2379664.2379912.5428259.1353881.9492251-.4754213 1.7968304-3.9748302 4.5424058-7.8471373 6.169203-3.3666109 1.4624012-5.90413636 1.5255148-6.14102641.3210521l.02724108.0857473c-.06813491-.2032397-.13546823-.5088193-.20360314-.7121389.03322658.1002914.10002616.2005829.1672646.3007974l.00195045-.0290644-.00128251.0300599.00128251.0035466c.61169115.8472052 2.92138432.6439656 5.87731712-.610439 3.7704254-1.5935908 7.2017795-4.3048395 7.6771207-6.0679833.1018015-.4408059.0336666-.7455854-.2036032-.9832317zm-1.3253442-1.04916458.2717381.16883292.3400333.23748631c.2718182.23756633.3736197.57611235.2718182 1.01683825-.4417547 1.6952106-3.7704255 4.3048395-7.4053827 5.830417-2.8734983 1.2369124-5.09300527 1.4016509-5.67021447.5905883l-.00371453-.0059741.00013489.00102-.00313489-.00302.00313489.0277448c-.01206537-.0200952-.02364658-.0411356-.03463287-.0630104l.03463287.0382856c-.09622927-.0960575-.13157848-.2006945-.13515997-.3550009l-.0027724-.0293793c.00058129.0050816.00120116.0101521.00185889.0152105l.00060525-.0131449c0-.2032396-.03366666-.5088192-.03366666-.7121389 0 .2032397.06813491.3391862.13546823.4744126v.0008001c2.27602657 2.4063893 12.50099197-3.8304269 12.60287367-6.4743825.0336667-.4744125-.2380714-.64396557-.3736198-.74558538zm-12.19558721 5.02866058c-.06813491.2711729-.03366666.5088192.10180156.6439656l-.00080158-.0020804c.0681349.1016198.16993647.1696331.30548486.2375663.10260315.1352264.03446824.4744125.03446824.4744125-.03366666.1014598-.0681349.2374063-.13546822.2030796-.22663541-.1126086-.3627449-.2706305-.41809004-.4841181l-.00673111-.0366834c.02535019.097419.06763392.1820555.1185347.2497086-.06353135-.1049582-.11441937-.2121249-.13466733-.3362828l.00133403.0109602-.00459907-.0259103c-.00437904-.035158-.00656856-.0715806-.00626054-.1091124l.00785961-.1139773.06899998-.4403552zm10.79386511-5.7504719-.1272252-.05770069c.2036032.10081966.4754214.20243948.6790245.30405929.4074467.20347968.5773031.54266582.441915 1.05140503-.4072864 1.52557747-3.3968057 3.86475367-6.6581431 5.25438457-.6117713.2712529-1.2226609.4743325-1.7662171.6440456-.3054849.0336066-.3399531-.3727927-.2036032-.5761123.0336667-.0680133.0681349-.0680133.1018016-.1016198.5098896-.1352264 1.0534458-.3391862 1.6306687-.5761124 3.091401-1.3224178 5.9109838-3.559174 6.2844432-4.9832117.1128902-.42401602-.0096858-.72967562-.3093254-.91795123zm-1.6976947-.48946488.7889221.19363776c.4417546.16963308.6116911.47441251.4754213.94882502-.3399531 1.2882512-2.8877177 3.2880012-5.6729124 4.4743925-2.2078916.9160186-3.90669522 1.0855717-4.34764831.440806l.08632574-.2585789c-.03012565.0866445-.05668431.1692835-.08632574.2584188-.10180156-.1350663-.13573542-.3046727-.10180156-.5086592 0-.0680132 0-.1016198.03366666-.169633.06450333-.1978241.1440933-.390425.23807138-.5761124-.06776054.236261-.05544801.4884289.04482206.6579664l-.0111554-.0138408c.40728643.5761124 1.97062187.440806 3.97483017-.4063992 2.5478447-1.1183781 4.8920062-2.948815 5.197491-4.10159983.1018016-.44080596-.2460872-.80319663-.619707-.93922315zm-7.63543816 3.12012838s-.16993648.2375664-.2718182.5088193l-.00204894.0015172-.01158324.0864859c-.01699964.1503151-.00319515.258348.07997365.3427554l.00187359-.0013948c.2718182.3391861 1.1207791.3391861 2.2760265-.0336066.1185347-.0294057.1333516.2002653.1352037.2581426l.0002646.0123902c0 .1696331-.0336667.4063992-1.4943989.610439-.40728647.0680133-.98531096.0336066-1.257049-.2711729l1.3746891-.1700388-1.3746891.1699588c-.06813491-.1016198-.10180157-.200039-.10180157-.369592 0-.0168033 0-.0338066.00420833-.0550108l.00380754-.0161231c0-.0680133.06011904-.1928376.0937857-.2599707.03366666-.1016198.40728642-.6775721.54355624-.8135987zm.95557206-.9938738c-.1018016.1352264-.1891746.2519692-.2236428.3879957-.0095389.0076015-.0527445.2215632.0145087.2896565.2044047.2705327.9515641.2025195 1.9031282-.2038798.3054848-.1352263.6116911-.2711729.8835093-.4408059.1018818-.0336066.2381516.1352263.2718182.169633.0336667.0336066.0681349.1352264-.0000801.2033197-.3399531.2032396-.7134927.4063992-1.1207792.5424258-1.188914.5087392-2.1421615.5759523-2.38023284.2375663-.02749444-.0831362-.04160237-.2686124-.02749444-.3520687.00264524-.2966978.54588088-.7331829.67926498-.8338426zm5.532314-2.2037897c.7134125 0 1.0534458.27117288.917176.81359865-.1693754.64396558-1.0867919 1.55918405-2.2757059 2.37278265-.2380714.1016199-.4754214-.2032396-.4072865-.3391861 0-.0336066.0336667-.0336066.0336667-.0336066 1.0534458-.7121388 1.8342719-1.49117073 2.0039679-2.06800321.1100679-.44072094-.1603923-.68018701-.6849315-.71809778l-.0596399-.00248761.0150172-.00010626c.1559473-.00995749.3220005-.02489374.457736-.02489374z" fill="#ff9580" fill-rule="evenodd"/></svg>

<svg xmlns="http://www.w3.org/2000/svg" width="32" height="32" viewBox="0 0 32 32">
  <path fill="#FF9580" fill-rule="evenodd" d="M21.7728703,21.3424418 C21.7728703,21.3424418 21.6895052,21.4576642 21.6558386,21.4912708 C21.6555179,21.5247973 19.6848961,22.948755 18.6322519,23.389561 C17.7487425,23.7623537 16.9679165,23.9656733 16.389892,24 L15.76,24 L15.8756225,23.996427 C16.5278764,23.9551098 17.3881578,23.7237861 18.3945011,23.3224279 C19.5834152,22.8136087 21.7392036,21.3424418 21.7728703,21.3424418 Z M23.6942747,18.3391361 C23.6261398,18.5422957 23.5235366,18.8471552 23.421735,19.051275 C22.2327408,21.4916709 16.7297649,24.2041998 14.55554,23.8647736 C14.3174686,23.8311671 14.0119837,23.7631538 13.8083806,23.6951406 C14.5900082,23.9327069 16.0507405,23.661534 17.8169576,22.9151485 C20.6706078,21.6951506 23.2861866,19.6607538 23.6942747,18.3391361 Z M23.9844492,16.8751707 L23.8978778,17.4578443 C23.4905914,18.9154085 20.6028737,21.1865714 17.4433378,22.5426758 C15.3709144,23.4242877 13.706579,23.6610539 12.8912046,23.3562745 C12.6876015,23.2546547 12.4157833,23.1530348 12.2458468,23.051495 C14.9577764,24.1727537 23.1770906,19.7679748 23.9844492,16.8751707 Z M16.4581872,21.6606638 C16.4916936,21.6943504 16.4916936,21.8303769 16.2880904,21.9319167 C13.943929,22.8471352 12.109577,23.0502948 11.3624176,22.5423558 C11.2491266,22.4522048 11.1058741,22.3467976 10.9726325,22.2462388 L10.7852748,22.1015498 C11.4986874,22.7119888 13.4349211,22.5079491 15.9490992,21.5254375 C16.3219174,21.4238176 16.4581872,21.6606638 16.4581872,21.6606638 Z M9.66361396,20.8478653 C10.0372337,21.3222778 10.9541693,21.4583044 12.2795936,21.2542646 C12.517665,21.2542646 12.68688,21.4575042 12.7213483,21.5254375 C12.7550149,21.5936108 12.7894832,21.7288371 12.6532134,21.7631638 C11.4306327,21.9664034 10.5471233,21.8647836 10.1390353,21.4239777 C10.0035671,21.2543446 9.79908218,21.0175784 9.66361396,20.8478653 Z M21.3155648,15.3224679 C21.3836997,15.5256275 21.3155648,15.661574 21.2474299,15.7631938 C19.753031,17.1192182 17.5440973,18.4751627 15.2346446,19.4583944 C11.8033707,20.8826721 9.22185928,20.9839719 8.98370774,19.7631738 C8.95004108,19.661554 8.88190617,19.5935407 8.81377127,19.4920009 C9.45912908,20.3392061 11.8370373,20.1695731 14.8946915,18.8480354 C17.2043847,17.8648036 19.4130779,16.4752527 20.9074768,15.1528348 C21.1800164,15.0168083 21.2818982,15.2200479 21.3155648,15.3224679 Z M23.5241779,13.220618 C23.6259794,13.4909907 23.727781,13.7622436 23.7614477,13.9662034 C23.7952746,14.1359965 23.7952746,14.3391561 23.7279413,14.5768025 C23.3206549,16.0679733 20.7728102,18.272003 17.6814893,19.8647936 C17.3415362,20.00002 17.1379331,19.7631738 17.206068,19.5256075 C17.2397347,19.4239877 17.3078696,19.3559744 17.3760045,19.3223679 C20.5010721,17.6951706 23.1170518,15.4576142 23.5241779,13.9327569 C23.5923128,13.6615573 23.5923128,13.4241777 23.5241779,13.220618 Z M23.9318651,14.9479949 L24,15.389601 L23.9996794,15.6607739 C23.9996794,15.7960002 23.9996794,15.8983402 23.9660127,16.0671731 C23.7279413,16.9823916 22.607082,18.1687829 21.078295,19.3215677 C20.8402236,19.4912008 20.7046753,19.2535544 20.7383419,19.0840014 C20.7720086,18.948775 20.8738101,18.8464351 20.9082784,18.8128285 C22.5052805,17.6264372 23.6597263,16.4064393 23.8981984,15.4568141 C23.9318651,15.287181 23.9663333,15.1176279 23.9318651,14.9479949 Z M21.6900663,10.3379759 C21.8592012,10.5084091 22.0292179,10.7115688 22.1991543,10.8812018 C22.4026773,11.1191682 22.4371455,11.4240277 22.3345424,11.8304269 C21.8591211,13.6272573 18.3597122,16.3728327 14.4874051,17.9996299 C11.1207942,19.4620311 8.58326874,19.5251447 8.34637869,18.320682 L8.37361977,18.4064293 C8.30548486,18.2031896 8.23815154,17.89761 8.17001663,17.6942904 C8.20324321,17.7945818 8.27004279,17.8948733 8.33728123,17.9950878 L8.33923168,17.9660234 L8.33923168,17.9660234 L8.33794917,17.9960833 L8.33794917,17.9960833 L8.33923168,17.9996299 C8.95092283,18.8468351 11.260616,18.6435955 14.2165488,17.3891909 C17.9869742,15.7956001 21.4183283,13.0843514 21.8936695,11.3212076 C21.995471,10.8804017 21.9273361,10.5756222 21.6900663,10.3379759 Z M20.3647221,9.28881132 L20.6364602,9.45764424 L20.9764935,9.69513055 C21.2483117,9.93269688 21.3501132,10.2712429 21.2483117,10.7119688 C20.806557,12.4071794 17.4778862,15.0168083 13.842929,16.5423858 C10.9694307,17.7792982 8.74992373,17.9440367 8.17271453,17.1329741 L8.169,17.127 L8.16913489,17.12802 L8.166,17.125 L8.16913489,17.1527448 C8.15706952,17.1326496 8.14548831,17.1116092 8.13450202,17.0897344 L8.16913489,17.12802 C8.07290562,17.0319625 8.03755641,16.9273255 8.03397492,16.7730191 L8.03120252,16.7436398 C8.03178381,16.7487214 8.03240368,16.7537919 8.03306141,16.7588503 L8.03366666,16.7457054 L8.03366666,16.7457054 C8.03366666,16.5424658 8,16.2368862 8,16.0335665 C8,16.2368062 8.06813491,16.3727527 8.13546823,16.5079791 L8.13546823,16.5087792 C10.4114948,18.9151685 20.6364602,12.6783523 20.7383419,10.0343967 C20.7720086,9.5599842 20.5002705,9.39043113 20.3647221,9.28881132 Z M8.16913489,14.3174719 C8.10099998,14.5886448 8.13546823,14.8262911 8.27093645,14.9614375 L8.27013487,14.9593571 C8.33826977,15.0609769 8.44007134,15.1289902 8.57561973,15.1969234 C8.67822288,15.3321498 8.61008797,15.6713359 8.61008797,15.6713359 C8.57642131,15.7727957 8.54195307,15.9087422 8.47461975,15.8744155 C8.24798434,15.7618069 8.11187485,15.603785 8.05652971,15.3902974 L8.0497986,15.353614 C8.07514879,15.451033 8.11743252,15.5356695 8.1683333,15.6033226 C8.10480195,15.4983644 8.05391393,15.3911977 8.03366597,15.2670398 L8.035,15.278 L8.03040093,15.2520897 C8.02602189,15.2169317 8.02383237,15.1805091 8.02414039,15.1429773 L8.032,15.029 L8.10099998,14.5886448 L8.16913489,14.3174719 Z M18.963,8.567 L18.8357748,8.50929931 C19.039378,8.61011897 19.3111962,8.71173879 19.5147993,8.8133586 C19.922246,9.01683828 20.0921024,9.35602442 19.9567143,9.86476363 C19.5494279,11.3903411 16.5599086,13.7295173 13.2985712,15.1191482 C12.6867999,15.3904011 12.0759103,15.5934807 11.5323541,15.7631938 C11.2268692,15.7968004 11.192401,15.3904011 11.3287509,15.1870815 C11.3624176,15.1190682 11.3968858,15.1190682 11.4305525,15.0854617 C11.9404421,14.9502353 12.4839983,14.7462755 13.0612212,14.5093493 C16.1526222,13.1869315 18.972205,10.9501753 19.3456644,9.5261376 C19.4585546,9.10212158 19.3359786,8.79646198 19.036339,8.60818637 L18.963,8.567 Z M17.2653053,8.07753512 L18.0542274,8.27117288 C18.495982,8.44080596 18.6659185,8.74558539 18.5296487,9.2199979 C18.1896956,10.5082491 15.641931,12.5079991 12.8567363,13.6943904 C10.6488447,14.610409 8.95004108,14.7799621 8.50908799,14.1351964 L8.59541373,13.8766175 C8.56528808,13.963262 8.53872942,14.045901 8.50908799,14.1350363 C8.40728643,13.99997 8.37335257,13.8303636 8.40728643,13.6263771 C8.40728643,13.5583639 8.40728643,13.5247573 8.44095309,13.4567441 C8.50545642,13.25892 8.58504639,13.0663191 8.67902447,12.8806317 C8.61126393,13.1168927 8.62357646,13.3690606 8.72384653,13.5385981 L8.71269113,13.5247573 C9.11997756,14.1008697 10.683313,13.9655633 12.6875213,13.1183581 C15.235366,11.99998 17.5795275,10.1695431 17.8850123,9.01675827 C17.9868139,8.57595231 17.6389251,8.21356164 17.2653053,8.07753512 Z M9.62986714,11.1976635 C9.62986714,11.1976635 9.45993066,11.4352299 9.35804894,11.7064828 L9.356,11.708 L9.34441676,11.7944859 C9.32741712,11.944801 9.34122161,12.0528339 9.42439041,12.1372413 L9.426264,12.1358465 C9.6980822,12.4750326 10.5470431,12.4750326 11.7022905,12.1022399 C11.8208252,12.0728342 11.8356421,12.3025052 11.8374942,12.3603825 L11.8377588,12.3727727 C11.8377588,12.5424058 11.8040921,12.7791719 10.3433599,12.9832117 C9.93607343,13.051225 9.35804894,13.0168183 9.0863109,12.7120388 L10.461,12.542 L9.0863109,12.7119588 C9.01817599,12.610339 8.98450933,12.5119198 8.98450933,12.3423668 C8.98450933,12.3255635 8.98450933,12.3085602 8.98871766,12.287356 L8.9925252,12.2712329 C8.9925252,12.2032196 9.05264424,12.0783953 9.0863109,12.0112622 C9.11997756,11.9096424 9.49359732,11.3336901 9.62986714,11.1976635 Z M10.5854392,10.2037897 C10.4836376,10.3390161 10.3962646,10.4557589 10.3617964,10.5917854 C10.3522575,10.5993869 10.3090519,10.8133486 10.3763051,10.8814419 L10.3763051,10.8814419 C10.5807098,11.1519746 11.3278692,11.0839614 12.2794333,10.6775621 C12.5849181,10.5423358 12.8911244,10.4063892 13.1629426,10.2367562 C13.2648244,10.2031496 13.4010942,10.3719825 13.4347608,10.4063892 C13.4684275,10.4399958 13.5028957,10.5416156 13.4346807,10.6097089 C13.0947276,10.8129485 12.721188,11.0161081 12.3139015,11.1521347 C11.1249875,11.6608739 10.17174,11.728087 9.93366866,11.389701 C9.90617422,11.3065648 9.89206629,11.1210886 9.90617422,11.0376323 C9.90881946,10.7409345 10.4520551,10.3044494 10.5854392,10.2037897 Z M16.1177532,8 C16.8311657,8 17.171199,8.27117288 17.0349292,8.81359865 C16.8655538,9.45756423 15.9481373,10.3727827 14.7592233,11.1863813 C14.5211519,11.2880012 14.2838019,10.9831417 14.3519368,10.8471952 C14.3519368,10.8135886 14.3856035,10.8135886 14.3856035,10.8135886 C15.4390493,10.1014498 16.2198754,9.32241787 16.3895714,8.74558539 C16.4996393,8.30486445 16.2291791,8.06539838 15.7046399,8.02748761 L15.645,8.025 L15.6600172,8.02489374 C15.8159645,8.01493625 15.9820177,8 16.1177532,8 Z"/>
</svg>
